svg/Mapbox-maki/camera-18.svg

<?xml version="1.0" encoding="UTF-8" standalone="no"?>
<!-- Generator: Adobe Illustrator 15.1.0, SVG Export Plug-In . SVG Version: 6.00 Build 0)  -->

<svg
   xmlns:dc="http://purl.org/dc/elements/1.1/"
   xmlns:cc="http://creativecommons.org/ns#"
   xmlns:rdf="http://www.w3.org/1999/02/22-rdf-syntax-ns#"
   xmlns:svg="http://www.w3.org/2000/svg"
   xmlns="http://www.w3.org/2000/svg"
   xmlns:sodipodi="http://sodipodi.sourceforge.net/DTD/sodipodi-0.dtd"
   xmlns:inkscape="http://www.inkscape.org/namespaces/inkscape"
   version="1.1"
   id="svg4619"
   sodipodi:docname="camera-18.svg"
   inkscape:version="0.48.2 r9819"
   x="0px"
   y="0px"
   width="18px"
   height="18px"
   viewBox="-402.5 403.5 18 18"
   enable-background="new -402.5 403.5 18 18"
   xml:space="preserve"><metadata
   id="metadata3025"><rdf:RDF><cc:Work
       rdf:about=""><dc:format>image/svg+xml</dc:format><dc:type
         rdf:resource="http://purl.org/dc/dcmitype/StillImage" /></cc:Work></rdf:RDF></metadata><defs
   id="defs3023">
	
	

		
		
	</defs>
<sodipodi:namedview
   id="base"
   inkscape:pageopacity="0.0"
   borderopacity="1.0"
   inkscape:cx="6.8763587"
   inkscape:pageshadow="2"
   inkscape:zoom="16"
   inkscape:document-units="px"
   inkscape:current-layer="svg4619"
   inkscape:guide-bbox="true"
   showguides="false"
   inkscape:window-width="1444"
   showgrid="false"
   inkscape:window-height="765"
   inkscape:window-x="160"
   inkscape:cy="12.139531"
   inkscape:window-y="0"
   inkscape:window-maximized="0"
   pagecolor="#ffffff"
   bordercolor="#666666"
   inkscape:snap-nodes="true"
   inkscape:snap-bbox="true">
	<inkscape:grid
   type="xygrid"
   id="grid4627"
   enabled="true"
   empspacing="2"
   visible="true"
   snapvisiblegridlinesonly="true">
		</inkscape:grid>
	<sodipodi:guide
   id="guide4659"
   position="7,18"
   orientation="0,1" />
	<sodipodi:guide
   id="guide4661"
   position="18,9"
   orientation="1,0" />
	<sodipodi:guide
   id="guide4663"
   position="16,17"
   orientation="0,1" />
	<sodipodi:guide
   id="guide4665"
   position="17,14"
   orientation="1,0" />
	<sodipodi:guide
   id="guide4667"
   position="0,16"
   orientation="1,0" />
	<sodipodi:guide
   id="guide4669"
   position="8,0"
   orientation="0,1" />
	<sodipodi:guide
   id="guide4671"
   position="2,10"
   orientation="1,0" />
	<sodipodi:guide
   id="guide4673"
   position="12,2"
   orientation="0,1" />
<sodipodi:guide
   orientation="1,0"
   position="9.5,2.5"
   id="guide3862" /></sodipodi:namedview>
<path
   style="font-size:medium;font-style:normal;font-variant:normal;font-weight:normal;font-stretch:normal;text-indent:0;text-align:start;text-decoration:none;line-height:normal;letter-spacing:normal;word-spacing:normal;text-transform:none;direction:ltr;block-progression:tb;writing-mode:lr-tb;text-anchor:start;baseline-shift:baseline;color:#000000;fill:#ffffff;fill-opacity:1;stroke:none;stroke-width:2;marker:none;visibility:visible;display:inline;overflow:visible;enable-background:accumulate;font-family:Sans;-inkscape-font-specification:Sans;opacity:0.3"
   d="m -393.5,404.5 c -0.72645,0 -1.14956,0.40934 -1.5,1 -0.13153,-0.0385 -0.38229,0.0181 -0.5,0 l -3,0 c -0.52358,5e-5 -0.99995,0.47642 -1,1 -0.52358,5e-5 -0.99995,0.47642 -1,1 l 0,8 c 0,1.09308 0.90814,2 2,2 l 11,0 c 1.09186,0 2,-0.90692 2,-2 l 0,-7 c 0,-1.09188 -0.90812,-2 -2,-2 l -1,0 c 0,-1.09308 -0.90814,-2 -2,-2 z"
   id="path3880"
   inkscape:connector-curvature="0"
   sodipodi:nodetypes="scccccsssssscss" /><g
   id="layer1"
   transform="translate(0,-1034.3622)"
   inkscape:groupmode="layer"
   inkscape:label="Layer 1">
</g>
<path
   style="fill:#454545"
   d="M 9,2 C 8.448,2 8,2.447 8,3 L 8,4 7,4 C 7,3.447 7,3 7,3 L 4,3 C 4,3 4,3.447 4,4 3.38951,4 3.5,4 3,4 l 0,8 c 0,0.553 0.448,1 1,1 l 11,0 c 0.552,0 1,-0.447 1,-1 L 16,5 C 16,4.447 15.553,4 15,4 L 13,4 13,3 C 13,2.447 12.552,2 12,2 z m 1.5,3.5 c 1.65687,0 3,1.34315 3,3 0,1.65684 -1.34313,3 -3,3 -1.65685,0 -3,-1.34316 -3,-3 0,-1.65685 1.34315,-3 3,-3 z"
   transform="translate(-402.5,403.5)"
   id="path3019"
   inkscape:connector-curvature="0"
   sodipodi:nodetypes="ssccccccsssssscssssssss" /><path
   inkscape:connector-curvature="0"
   id="circle3021"
   d="m -390.5,412 c 0,0.82843 -0.67157,1.5 -1.5,1.5 -0.82843,0 -1.5,-0.67157 -1.5,-1.5 0,-0.82843 0.67157,-1.5 1.5,-1.5 0.82843,0 1.5,0.67157 1.5,1.5 z"
   style="fill:#454545" />
</svg>

<svg xmlns="http://www.w3.org/2000/svg" viewBox="-402.5 403.5 18 18" enable-background="new -402.5 403.5 18 18"><path d="m-393.5 404.5c-.726 0-1.15.409-1.5 1-.132-.038-.382.018-.5 0h-3c-.524 0-1 .476-1 1-.524 0-1 .476-1 1v8c0 1.093.908 2 2 2h11c1.092 0 2-.907 2-2v-7c0-1.092-.908-2-2-2h-1c0-1.093-.908-2-2-2z" opacity=".3" color="#000" fill="#fff"/><g fill="#454545"><path d="m9 2c-.552 0-1 .447-1 1v1h-1c0-.553 0-1 0-1h-3c0 0 0 .447 0 1-.61 0-.5 0-1 0v8c0 .553.448 1 1 1h11c.552 0 1-.447 1-1v-7c0-.553-.447-1-1-1h-2v-1c0-.553-.448-1-1-1zm1.5 3.5c1.657 0 3 1.343 3 3 0 1.657-1.343 3-3 3-1.657 0-3-1.343-3-3 0-1.657 1.343-3 3-3" transform="translate(-402.5 403.5)"/><path d="m-390.5 412c0 .828-.672 1.5-1.5 1.5-.828 0-1.5-.672-1.5-1.5 0-.828.672-1.5 1.5-1.5.828 0 1.5.672 1.5 1.5"/></g></svg>
